X: 2
T:If You Knew Susie
M:8/8
L:1/8
K:A
E|"A" A2B2 B(AA)F|G2A2 A(G G2)|F4"A7" F4|"Bm"FEG(F F3)F|"E" G2A2A(GG)E|F
2G2 G(F F2)| E4 "E7"E4| "A" CD^DE "E7" =F^F=G^G|
 "A"A2B2"A7" B(A A2)|"D"BAB(A A) F| "B7"B2c2 c(B B2)| "E" cBcB cBGE|"A"
A2B2 B(AA)F| "D" B2c2 c (B B2)| "Bm" d4 c^B c2| "A" A4A4:||
